X: 21759
T: King Of The Fairies
R: hornpipe
M: 4/4
K: Edorian
B,2|:EDEF GFGA|B2B2 G3A|B2E2 EFGE|FGFE D2B,2|
EDEF GFGA|BAGB d3=c|B2E2 GFED|1 E2ED E2B,/C/D:|2 E2ED E2B/c/d||
e2e2 Bdef|gagf e3f|e2B2 BABc|dedc BcdB|
e2B2 Bdef|gagf e3d|Bde/f/g fedf|e2ed e3f|
g2 g/f/e f2 f/e/d|edBc d3e|dBAF GABc|dBAF GFED|
B,2E2 EFGA|B2e2 edef|e2B2 BAGF|E2ED E4||

